X:1
T:Title
%%score { ( 1 3 4 ) | ( 2 5 ) }
L:1/8
Q:1/4=100
M:4/4
K:Bb
V:1 treble nm="Grand Piano"
V:3 treble 
V:4 treble 
V:2 bass 
V:5 bass 
V:1
 [DF]>[Fd] [=E_d]>[F=d] [DB]2 F2 | G>[Ge] [Gd]>[Ge] G4 | A>B c>e d2 _d2 | [Fd]>[FB] G>B F4 | %4
w: J.~M.~Dungan * * * * *||||
 [DF]>[Fd] [=E_d]>[E=d] [DB]2 F2 | G>[Ge] [Gd]>[Ge] G4 | G>A B>G F>[DB] [FB]>[Ge] | %7
w: |||
 [Fd]2 [Ec]2 [DB]4 | [^Fd]2 [Fd]>[Fd] [Fd][Fc][FB][FA] | c2 B>B B3 B | %10
w: |||
 [=EB]2 [EB]>[EB] [EB][EB][EA][EG] | c8 | [DF]>[Fd] [=E_d]>[F=d] [DB]2 F2 | G>c B>G [DF]3 [DF] | %14
w: ||||
 [EG]>[Ge] [Fd]>[Gc] B>F G>A | [DB]8 |] %16
w: ||
V:2
 [B,,B,]>[B,,B,] [B,,B,]>[B,,B,] [B,,B,]2 [D,B,]2 | [E,B,E]>[E,B,] [E,B,]>[E,B,] [E,B,E]4 | %2
 [F,E]>[F,G,E] [F,A,E]>[F,CE][K:treble] [B,F]2 [B,=E]2 | [B,,B,]>[D,B,] [E,B,E]>[G,B,E] [B,D]4 | %4
 [B,,B,]>[B,,B,] [B,,B,]>[B,,B,] [B,,B,]2 [D,B,]2 | [E,B,E]>[E,B,] [E,B,]>[E,B,] [E,B,E]4 | %6
 [E,B,E]>[E,B,E] [E,G,E]>[E,B,E] [D,B,]>[B,,B,] [D,B,]>[E,B,] | [F,B,]2 [F,A,]2 [B,,B,]4 | %8
 [D,A,]2 [D,A,]>[D,A,] [D,A,][D,A,][D,B,][D,C] | [G,B,G]2 [G,DG]>[G,DG] [G,DG]3 [G,DG] | %10
 [C,C]2 [C,G,]>[C,G,] [C,G,][C,G,][C,A,][C,B,] | [A,F]2 z2 z4 | %12
 [B,,B,]>[B,,B,] [B,,B,]>[B,,B,] [B,,B,]2 [D,B,]2 | %13
 [E,B,E]>[E,B,E] [E,G,E]>[E,B,E] [B,,B,]3 [B,,B,] | %14
 [E,B,]>[C,C] [D,B,]>[E,E] [F,DF]>[F,D] [F,CE]>[F,CE] | [B,,B,]8 |] %16
V:3
 x8 | x8 | x8 | x8 | x8 | x8 | x8 | x8 | x8 | x8 | x8 | z4 A4 | x8 | x8 | x8 | x8 |] %16
V:4
 x8 | x8 | x8 | x8 | x8 | x8 | x8 | x8 | x8 | x8 | x8 | z2 FG z2 E2 | x8 | x8 | x8 | x8 |] %16
V:5
 x8 | x8 | x4[K:treble] x4 | x8 | x8 | x8 | x8 | x8 | x8 | x8 | x8 | %11
 F,2- [F,-A,][F,-B,] [F,-C]2 F,2 | x8 | x8 | x8 | x8 |] %16

